X:1
T:Title
%%score { ( 1 3 4 ) | ( 2 5 ) }
L:1/8
M:4/4
K:C
V:1 treble nm="Grand Piano"
V:3 treble 
V:4 treble 
V:2 bass 
V:5 bass 
V:1
 z4 z2[Q:1/4=100] [CE]>[EG] | [Ec]2 [EB]2 [EA]2 [CE]2 | [EG]>[E^F] [EG]>[EF] [=FG]2 D>E | %3
 F>G A>B e2 d2 | [EG-]4 G2 z2 | [Ec]2 [EB]2 [EA]2 [CE]2 | [EG]>[_E^F] [=EG]>[_EF] [=EG]2 [EGc]2 | %7
 [GB]>[G_B] [G=B]>[Gd] [^Fe]2 [Fd]2 |[M:3/4] G6 |[M:1/4] E>F | %10
[M:4/4] [EG]>[_E^F] [=EG]>[_EF] [=EG]2 [Ec]2 | [Ge]4 z4 | %12
 [FA]>[F^G] [FA]>[=GB] [Bd]>[Ac] [GB]>[FA] | [EG]6 z2 | z2 c2 c2 C2 | z2 c2 c2 z2 | %16
 [^FA]2 [FA]2 A2 A2 |[M:3/4] B2 B2 B2 |[M:1/4] E>F |[M:4/4] [EG]>[_E^F] [=EG]>[_EF] [=EG]2 [Ec]2 | %20
 [Ge]4 z4 | [FA]>[F^G] [FA]>[=GB] [Bd]>[Ac] [GB]>[FA] | [Ge]6 z2 | [Af]2 [Ae]2 [Ad]2 [Ac]2 | %24
[M:9/8] e2 d- d c2- cB>A |[M:4/4] G>^F G>A G2 d2 | [CEc]2 z2 z2 [Fd]2 | [Ec]2 (3GGG G2 d2 | %28
 [Ec]4 [Fc]4 |[M:3/4] [Ec]6 |] %30
V:2
 z4 z2 [C,G,]>[C,C] | [C,G,]2 [C,G,]2 [C,G,]2 [C,G,]2 | %2
 [C,C]>[C,C] [^C,_B,]>[C,B,] [D,=B,]2 [G,B,]>[K:treble][G,B,D] | %3
 [G,B,D]>[G,B,E] [G,B,F]>[G,B,G] [G,B,G]2 [G,B,F]2 | C,2 ^C,2 [D,B,]2[K:treble] [G,B,F]>[G,B,F] | %5
 [C,G,]2 [C,G,]2 [C,G,]2 [C,G,]2 | [C,C]>[C,C] [C,C]>[C,C] [C,C]2 C,2 | %7
 [D,D]>[D,D] [D,D]>[D,B,] [D,C]2 [D,C]2 |[M:3/4] [G,B,]6 |[M:1/4] C>D | %10
[M:4/4] [C,G,]2 [G,,G,]2 [C,G,]2 [G,,G,]2 | [C,G,]2 z ^F [C,G,]2 [E,C]2 | %12
 [F,C]2 [F,C]2 [F,C]2 [F,C]2 | [C,C]2 C,2 C,2 z2 | z2[K:treble] F2 F2 z2 | z2 E2 E2 C>[K:bass]B, | %16
 A,>^G, A,>B,[K:treble] [C^F]2 [A,F]2 |[M:3/4] [EF]2 [DF]2 [B,F]2 |[M:1/4] C>D | %19
[M:4/4][K:bass] [C,G,]2 [G,,G,]2 [C,G,]2 [G,,G,]2 | [C,G,]2 z ^F [C,G,]2 [E,C]2 | %21
 [F,C]2 [F,C]2 [F,C]2 [F,C]2 | [E,E]2 E,2 E,2 [E,B,]2 | [D,D]2 [E,^C]2 [F,D]2 [F,_E]2 | %24
[M:9/8][K:treble] [G,CG]2 [^G,B,F]- [G,B,F] [A,CE]2- [A,CE][K:bass] [^F,C_E]2 | %25
[M:4/4] [G,CE]2[K:treble] [G,CE]2 [G,B,F]2 [G,B,F]2 | C,2[K:treble] (3GGG G2[K:bass] [C,B,]2 | %27
 [C,C]2 z2 z2 [G,B,F]2 | [C,C]4 [F,A,]4 |[M:3/4] [C,G,]6 |] %30
V:3
 x8 | x8 | x8 | x8 | C2 _B,2 F2 G>G | x8 | x8 | x8 |[M:3/4] x6 |[M:1/4] x2 |[M:4/4] x8 | %11
 z2 z _e [G=e]2 [^Gc]>[GB] | x8 | z2 C2 C2 C>B, | A,6 z2 | G,6 z2 | x8 |[M:3/4] x6 |[M:1/4] x2 | %19
[M:4/4] x8 | z2 z _e [G=e]2 [^Gc]>[GB] | x8 | z2 B,2 B,2 [Ge]2 | x8 |[M:9/8] x9 |[M:4/4] x8 | x8 | %27
 x8 | x8 |[M:3/4] x6 |] %30
V:4
 x8 | x8 | x8 | x8 | x8 | x8 | x8 | x8 |[M:3/4] x6 |[M:1/4] x2 |[M:4/4] x8 | z2 G,2 z4 | x8 | x8 | %14
 x8 | x8 | x8 |[M:3/4] x6 |[M:1/4] x2 |[M:4/4] x8 | z2 G,2 z4 | x8 | x8 | x8 |[M:9/8] x9 | %25
[M:4/4] x8 | x8 | x8 | x8 |[M:3/4] x6 |] %30
V:5
 x8 | x8 | x15/2[K:treble] x/ | x8 | x6[K:treble] x2 | x8 | x8 | x8 |[M:3/4] x6 |[M:1/4] x2 | %10
[M:4/4] x8 | z2 G,,2 z4 | x8 | x8 | x2[K:treble] x6 | x15/2[K:bass] x/ | x4[K:treble] x4 | %17
[M:3/4] x6 |[M:1/4] x2 |[M:4/4][K:bass] x8 | z2 G,,2 z4 | x8 | x8 | x8 | %24
[M:9/8][K:treble] x7[K:bass] x2 |[M:4/4] x2[K:treble] x6 | x2[K:treble] x4[K:bass] x2 | x8 | x8 | %29
[M:3/4] x6 |] %30

